build/system/MicrophoneOffOutline.svg

<svg xmlns="http://www.w3.org/2000/svg" fill="none" viewBox="0 0 24 24" focusable="false"><path d="M0 0H24V24H0z"/><path fill="#74767B" fill-rule="evenodd" d="M4.57933 2.13224C4.86384 1.91345 5.27195 1.96659 5.49087 2.25093L7.83041 5.28964C8.27881 3.4032 9.97563 2.00001 12.0004 2.00001C14.3674 2.00001 16.2863 3.91772 16.2863 6.28333L16.2863 11.1265C16.2863 12.4166 15.7156 13.5734 14.8128 14.3587L15.6773 15.4815C16.9154 14.4363 17.7017 12.8732 17.7017 11.1266C17.7017 10.7678 17.9927 10.477 18.3517 10.477C18.7107 10.477 19.0017 10.7678 19.0017 11.1266C19.0017 13.2925 18.0171 15.2286 16.4707 16.5121L19.8888 20.9516C20.1077 21.236 20.0546 21.6439 19.7701 21.8626C19.4855 22.0814 19.0774 22.0283 18.8585 21.7439L4.46057 3.04323C4.24165 2.75889 4.29482 2.35102 4.57933 2.13224ZM14.018 13.3263L9.01449 6.82757L9.01449 6.28333C9.01449 4.63526 10.3513 3.29923 12.0004 3.29923C13.6494 3.29923 14.9863 4.63526 14.9863 6.28333L14.9863 11.1265C14.9863 11.9972 14.6131 12.7808 14.018 13.3263ZM7.71449 10.2718L7.71449 11.1265C7.71449 13.4921 9.63335 15.4098 12.0004 15.4098C12.1461 15.4098 12.2211 15.2437 12.1322 15.1282L11.3457 14.1067C11.3043 14.0529 11.2457 14.0153 11.1804 13.9967C9.93001 13.6406 9.01449 12.4904 9.01449 11.1265C9.01449 11.0956 9.00426 11.0656 8.9854 11.0411L8.25219 10.0887C8.07748 9.86181 7.71449 9.98536 7.71449 10.2718ZM12.0002 16.8247C12.3873 16.8247 12.7654 16.7862 13.1308 16.7127C13.2465 16.6894 13.3664 16.7314 13.4384 16.8248L13.9148 17.4436C14.0412 17.6078 13.9669 17.8473 13.7663 17.8994C13.4047 17.9934 13.0316 18.0591 12.6497 18.0942L12.6501 18.1058L12.6503 18.124L12.6503 20.6941L15.3502 20.6941C15.7092 20.6941 16.0002 20.985 16.0002 21.3437C16.0002 21.7025 15.7092 21.9933 15.3502 21.9933L8.65023 21.9933C8.29124 21.9933 8.00023 21.7025 8.00023 21.3437C8.00023 20.985 8.29124 20.6941 8.65023 20.6941L11.3503 20.6941L11.3503 18.124L11.3505 18.109L11.351 18.0943C7.78851 17.7669 4.99866 14.7724 4.99866 11.1266C4.99866 10.7678 5.28968 10.477 5.64867 10.477C6.00765 10.477 6.29867 10.7678 6.29867 11.1266C6.29867 14.2736 8.85132 16.8247 12.0002 16.8247Z"/></svg>

<svg xmlns="http://www.w3.org/2000/svg" fill="none" viewBox="0 0 24 24" focusable="false"><path fill="#74767B" fill-rule="evenodd" d="M5.49 2.25a.654.654 0 0 0-.92-.12.65.65 0 0 0-.11.91l14.39 18.7c.22.28.63.34.92.12a.65.65 0 0 0 .11-.91l-3.41-4.44A7.01 7.01 0 0 0 19 11.12c0-.36-.29-.65-.65-.65s-.65.29-.65.65c0 1.75-.79 3.31-2.03 4.36l-.86-1.13c.9-.78 1.47-1.94 1.47-3.23V6.28C16.28 3.91 14.36 2 12 2 9.97 2 8.27 3.4 7.83 5.28zm3.52 4.57 5 6.5c.6-.54.97-1.33.97-2.2V6.28A2.99 2.99 0 0 0 12 3.29c-1.65 0-2.99 1.34-2.99 2.99zm-1.3 3.45v.85A4.28 4.28 0 0 0 12 15.4c.14 0 .22-.16.13-.28l-.79-1.02a.36.36 0 0 0-.16-.11 2.98 2.98 0 0 1-2.17-2.87c0-.03-.01-.06-.03-.08l-.73-.96c-.18-.22-.54-.1-.54.19M12 16.82c.38 0 .76-.04 1.13-.11.11-.03.23.02.3.11l.48.62c.13.16.05.4-.15.45-.36.1-.73.16-1.12.2v.01l.01.02v2.57h2.7c.35 0 .65.29.65.65s-.3.65-.65.65h-6.7c-.36 0-.65-.29-.65-.65s.29-.65.65-.65h2.7v-2.6c-3.57-.33-6.36-3.32-6.36-6.97 0-.36.29-.65.65-.65s.65.29.65.65c0 3.15 2.56 5.7 5.71 5.7"/></svg>
